!!!OTL: 84c. Zwei Koenigskinder.
!!!ODT: 1819
!!!ARE: Europa, Mitteleuropa, Deutschland, Bonn
!!!SCT: E0084A
!!!TXL: @@DE
!!!YEM: Copyright 1995, estate of Helmut Schaffrath.
**kern	**text
*ICvox	*
*M6/8	*
*k[b-e-]	*
*g:	*
!LO:TX:a:t=Mäßig langſam.	!
!LO:TX:a:t=Aus der Umgegend von Bonn. 1819.	!
{8d	Es
=1	=1
8g	wa-
8g	-ren
8a	ʒwei
8b-L	Kö-
8aJ	.
8b-/	-nigs-
=2	=2
8.gL	-kin-
16a	.
8b-J	.
4a}	-der,
{8d	die
=3	=3
8g	hat-
8f#	-ten
8g	ein-
8a	-an-
8g	-der
8d	ſo
=4	=4
[4.g	lieb;
8g]	.
8r}	.
{16gL	ſie
16aJ	.
=5	=5
8b-	konn-
8a	-ten
8b-	bei-
8dd	-ſam-
8cc	-men
8b-	nicht
=6	=6
8.aL	kom-
16b-	.
8cc/J	.
4b-}	-men,
{8b-	das
=7	=7
8g	Waſ-
8f#	-ſer
8g	war
8aL	viel
8gJ	.
8f#	ʒu
=8	=8
[4.g	tieſ.
8g]	.
8r}	.
==	==
!!!AGN: erzaehlendes Volks - Lied, Sage, Liebe, Leid, Tod, Ballade ?
!!!ONB: ESAC (Essen Associative Code) Database: ERK1
!!!AMT: compound duple
!!!AIN: vox
!!!EED: Helmut Schaffrath
!!!EEV: 1.0
!!!GTL: Liebesgeschichten mit tragischem Schluss
!!!URL-scan: https://rosdok.uni-rostock.de/mcrviewer/recordIdentifier/rosdok_ppn745146120/iview2/phys_0359.iview2?x=-495.6391625615772&y=524.1558928422164&scale=0.46294184720638515&rotation=0&layout=singlePageLayout
!!!ENC: Anna Maria Matuszewska
!!!EEV: 2024/11/26
*-	*-
